symbols/web/drive_file_move/materialsymbolsoutlined/drive_file_move_gradN25_48px.svg

<svg xmlns="http://www.w3.org/2000/svg" height="48" width="48"><path d="M24.65 33.2 31.9 26l-7.25-7.25-2 2.05 3.75 3.75H16.15v2.85H26.4l-3.75 3.75ZM7.2 39.8q-1.15 0-2.025-.9t-.875-2V11.2q0-1.1.875-2 .875-.9 2.025-.9h14l2.85 2.9h16.9q1.05 0 1.95.9.9.9.9 1.95V36.9q0 1.1-.9 2-.9.9-1.95.9Zm0-28.6v25.7h33.75V14.05h-18.1L20 11.2H7.2Zm0 0V36.9Z"/></svg>

<svg xmlns="http://www.w3.org/2000/svg" height="48" width="48"><path d="M24.65 33.2 31.9 26 24.65 18.75 22.65 20.8 26.4 24.55H16.15V27.4H26.4L22.65 31.15ZM7.2 39.8Q6.05 39.8 5.175 38.9Q4.3 38 4.3 36.9V11.2Q4.3 10.1 5.175 9.2Q6.05 8.3 7.2 8.3H21.2L24.05 11.2H40.95Q42 11.2 42.9 12.1Q43.8 13 43.8 14.05V36.9Q43.8 38 42.9 38.9Q42 39.8 40.95 39.8ZM7.2 11.2V36.9Q7.2 36.9 7.2 36.9Q7.2 36.9 7.2 36.9H40.95Q40.95 36.9 40.95 36.9Q40.95 36.9 40.95 36.9V14.05Q40.95 14.05 40.95 14.05Q40.95 14.05 40.95 14.05H22.85L20 11.2H7.2Q7.2 11.2 7.2 11.2Q7.2 11.2 7.2 11.2ZM7.2 11.2Q7.2 11.2 7.2 11.2Q7.2 11.2 7.2 11.2V14.05Q7.2 14.05 7.2 14.05Q7.2 14.05 7.2 14.05V36.9Q7.2 36.9 7.2 36.9Q7.2 36.9 7.2 36.9Q7.2 36.9 7.2 36.9Q7.2 36.9 7.2 36.9Z"/></svg>
